icons/production/sass.svg

<?xml version="1.0" encoding="UTF-8" standalone="no"?>
<svg width="24px" height="24px" viewBox="0 0 24 24" version="1.1" xmlns="http://www.w3.org/2000/svg">
<!--Generator: Sketch 3.8.3 (29802) - http://www.bohemiancoding.com/sketch-->
    <title>
        sass
    </title>
    <desc>
        Created with Sketch.
    </desc>
    <g id="Page-1" stroke="none" stroke-width="1" fill="none" fill-rule="evenodd">
        <path d="M21.9706642,15.1266558 C21.9011511,14.5427314 21.6020535,14.089565 21.1505373,13.7344671 C20.6275948,13.3236048 20.0153694,13.1543885 19.3629667,13.1274677 C18.8310959,13.1056747 18.3107044,13.1851551 17.8088071,13.3684728 C17.6659545,13.4203914 17.5256529,13.4819246 17.3815248,13.540253 C17.3623928,13.5049996 17.3419853,13.4716691 17.3254042,13.4364157 C17.1774497,13.1325955 16.998884,12.8422357 16.9599821,12.4941885 C16.9319218,12.2467738 16.8974841,11.999359 16.9561557,11.7551491 C17.0122764,11.5199128 17.0862536,11.2885223 17.155129,11.0558499 C17.1908421,10.9359884 17.1659705,10.8693274 17.0524537,10.8154859 C17.0129141,10.7968977 16.9701859,10.7802325 16.9268199,10.7738228 C16.6474921,10.7334416 16.3726284,10.7565165 16.1022289,10.835356 C16.0065687,10.8635587 15.9370556,10.9174002 15.9160103,11.0238014 C15.9038934,11.0846936 15.8790217,11.143022 15.8624406,11.2032732 C15.7916521,11.4538928 15.7419087,11.7089992 15.6277542,11.9474404 C15.3414113,12.5461072 15.0155288,13.121699 14.6807181,13.693445 C14.6443672,13.7549782 14.6067409,13.8158704 14.560824,13.890864 C14.4434808,13.6440902 14.3184847,13.4229553 14.2802207,13.1627211 C14.2374924,12.8691565 14.2036925,12.5762328 14.2763942,12.2845911 C14.3306017,12.0673019 14.4013903,11.8538586 14.4664392,11.6397744 C14.4976882,11.53786 14.4830203,11.4846594 14.3911865,11.4308179 C14.3446319,11.4038971 14.2923376,11.3795402 14.2400434,11.3718486 C13.9505118,11.3289035 13.6654443,11.3513375 13.3867542,11.4423554 C13.3000223,11.4705581 13.2547432,11.5269635 13.2279583,11.6166994 C13.1501547,11.8814204 13.0838302,12.1525511 12.9747776,12.4044526 C12.5321897,13.4235963 12.0774848,14.4376122 11.6227799,15.4509871 C11.5277574,15.6625075 11.4167916,15.8669772 11.3096521,16.0727288 C11.2822295,16.1252884 11.2433277,16.1707974 11.2095278,16.2201521 C11.1821052,16.1881036 11.1719014,16.1656696 11.1719014,16.1438766 C11.1725391,16.0137595 11.1572335,15.8791556 11.1821052,15.7535253 C11.2567201,15.3727887 11.3428143,14.9933339 11.4340104,14.6158021 C11.5086254,14.3042902 11.595995,13.9953423 11.6795383,13.6851124 C11.7075986,13.5812751 11.7082363,13.4844885 11.6336214,13.3973165 C11.5092631,13.2511751 11.2490673,13.2191266 11.0947355,13.3319374 C11.0781544,13.3441159 11.0583846,13.3524485 11.0264979,13.3710367 C11.0322375,13.3216819 11.0354262,13.2909153 11.0398903,13.2601487 C11.0724148,13.0229895 11.0787921,12.7871122 11.0143809,12.5531578 C10.9333886,12.2621571 10.7274003,12.0948637 10.4270272,12.1038373 C10.2867256,12.1083241 10.1400466,12.13204 10.0105864,12.1833177 C9.46532317,12.3980429 9.04633143,12.7781386 8.6898377,13.2357918 C8.65731322,13.2774549 8.61458499,13.3152722 8.56930583,13.3402701 C8.10822359,13.5972994 7.64522815,13.8511238 7.18287044,14.1062302 C7.01004432,14.2010939 6.8372182,14.2965986 6.66821849,14.3895394 C6.53046778,14.2568584 6.40483403,14.1196906 6.26198144,14.0030339 C5.82704633,13.6466541 5.38509614,13.2992479 4.94761009,12.946714 C4.55986735,12.6345611 4.18360384,12.308948 3.89598546,11.8955218 C3.68170658,11.5878557 3.54395587,11.251346 3.53120117,10.8706093 C3.51462007,10.3860354 3.65109531,9.94312452 3.89662319,9.53033929 C4.21102643,9.00282027 4.63894646,8.57977951 5.11023245,8.19583796 C5.60830331,7.79010341 6.14718918,7.44590206 6.70584484,7.13182634 C7.48706993,6.69212033 8.29125347,6.30305102 9.15283314,6.04602171 C10.0367335,5.78258269 10.9327509,5.63195453 11.8574663,5.73707375 C12.2209751,5.77809589 12.5736424,5.86206307 12.8982494,6.04089394 C13.1463282,6.17742073 13.3497656,6.3562516 13.4447881,6.63635587 C13.5378974,6.91197334 13.5353464,7.19079566 13.4702975,7.47025895 C13.3389241,8.03623622 13.0302605,8.50350397 12.64188,8.920776 C12.0054207,9.60469191 11.2286598,10.0700367 10.3536877,10.3777028 C9.8492395,10.5552517 9.3301234,10.6667806 8.79697714,10.7116486 C8.36204203,10.7481839 7.9360352,10.7097257 7.52405854,10.5571746 C7.25110806,10.4565422 7.01387073,10.3020682 6.8225503,10.0783694 C6.78811262,10.0379882 6.74474666,9.99504316 6.68097318,10.0322195 C6.61847518,10.0687548 6.60763369,10.1290061 6.62867893,10.1892573 C6.66375434,10.2898898 6.69564108,10.393727 6.75048627,10.483463 C6.88696151,10.7084437 7.08657249,10.8718913 7.30595325,11.0122639 C7.72749593,11.2814717 8.19814419,11.3718486 8.68664902,11.3930006 C9.42769682,11.4250491 10.150888,11.3141612 10.8632378,11.1141783 C11.8810625,10.8289462 12.7656006,10.3251432 13.4753994,9.53033929 C14.0665795,8.86885736 14.4881222,8.12148534 14.5786805,7.21963935 C14.6226842,6.77929237 14.5761296,6.34791898 14.370779,5.94667122 C14.1482096,5.51145201 13.7949045,5.21147765 13.3720863,4.98906076 C12.75731,4.66472951 12.0927904,4.53717631 11.4072255,4.5 L10.7203852,4.5 C9.88941679,4.54038116 9.08650872,4.71600718 8.30592137,5.00123921 C7.71537897,5.21724639 7.13567807,5.46081531 6.57319601,5.74284249 C5.34810752,6.35817451 4.20720003,7.09400906 3.27036765,8.11379369 C2.80354581,8.62208358 2.40815025,9.17972823 2.18111667,9.83992821 C2.11479226,10.0335014 2.07397723,10.2386121 2.02614713,10.438595 C2.02232072,10.4552602 2.04081503,10.4712845 2,10.4879497 L2,10.7699769 C2.04081503,10.8424066 2.04527917,10.9141954 2.06377348,10.9866251 C2.18430535,11.4564567 2.43238417,11.8602684 2.73977233,12.2281856 C3.17789611,12.7524998 3.7078537,13.1742586 4.25758107,13.5716605 C4.73396894,13.9158619 5.2173719,14.2523716 5.69567297,14.5940091 C5.77794075,14.6523374 5.85383119,14.7202803 5.94311406,14.7920691 C5.86658589,14.8337322 5.80217468,14.8702675 5.73585026,14.904239 C5.10449284,15.2260063 4.49736934,15.5868729 3.93743822,16.024015 C3.60007653,16.2874541 3.27355633,16.5675583 3.04333408,16.9329117 C2.67281018,17.521323 2.54143682,18.1481925 2.81757597,18.817366 C2.89856829,19.0128621 3.0216511,19.1820785 3.19511495,19.3064268 C3.25123561,19.346808 3.31437135,19.3871891 3.38005803,19.4025724 C3.54842001,19.4423126 3.7206084,19.4685924 3.89152132,19.5 L4.37492427,19.5 C4.90998374,19.4519272 5.39657536,19.2679685 5.83597462,18.9628664 C6.5234527,18.4859841 6.98644814,17.8469362 7.18605912,17.0258525 C7.33082491,16.4297496 7.33656452,15.8323648 7.16628934,15.2388257 C7.15034597,15.1837022 7.13057619,15.1298607 7.10953095,15.0766601 C7.0884857,15.0234595 7.06425178,14.9715409 7.03555371,14.9048799 C7.400338,14.6940005 7.76639776,14.4824801 8.13181978,14.2709597 C8.13755939,14.2754465 8.14266127,14.2805743 8.14840088,14.2850611 C8.1286311,14.3504401 8.10758586,14.4158192 8.08909155,14.4824801 C7.95899365,14.9606444 7.87226173,15.4471413 7.90351073,15.9432527 C7.93667294,16.4720537 8.08335193,16.9668832 8.39137783,17.4091531 C8.64009438,17.7668148 9.23382545,17.7796342 9.49848538,17.4213315 C9.59223239,17.2937783 9.68342846,17.1610973 9.75166608,17.0188018 C9.93023182,16.6476797 10.0960429,16.2701479 10.266318,15.8951799 C10.2739709,15.8791556 10.2803482,15.8631314 10.2962916,15.826596 C10.2841746,16.0041449 10.2695067,16.1599009 10.2631294,16.3162978 C10.2529256,16.5598667 10.2669558,16.8021537 10.3498613,17.0341851 C10.4206499,17.2328861 10.5411817,17.3809503 10.7675776,17.4065892 C10.9219094,17.4245364 11.0456299,17.3533886 11.1591467,17.2630117 C11.3370747,17.1219981 11.4812028,16.948295 11.5883422,16.750235 C11.8912662,16.1906675 12.2024808,15.6349457 12.4773445,15.0612768 C12.7745289,14.440817 13.0340869,13.8024101 13.3102261,13.1716947 C13.3255317,13.1370823 13.3389241,13.1018289 13.356143,13.0595248 C13.4211919,13.3171951 13.4671088,13.5690967 13.5506521,13.8081788 C13.6475878,14.0850782 13.7681196,14.3555679 13.899493,14.618366 C13.9613533,14.7427143 13.9543382,14.8234766 13.868244,14.9273139 C13.5085616,15.3631741 13.1552565,15.804162 12.8013137,16.24515 C12.7228724,16.3425776 12.6450687,16.4412871 12.5800198,16.5476882 C12.5404802,16.6124263 12.5143331,16.6906247 12.5034916,16.7662593 C12.4824464,16.9104777 12.5704537,17.0489274 12.7241478,17.0822579 C12.8638117,17.1123836 13.0130417,17.123921 13.1558943,17.1130245 C13.649501,17.0764892 14.0978285,16.9021451 14.4944995,16.6072985 C15.007876,16.2246389 15.1730493,15.7035296 15.048691,15.0849927 C15.0148911,14.9170584 14.9555818,14.7536108 14.8975479,14.5920861 C14.8714008,14.5190155 14.8701253,14.4677378 14.9173177,14.3997949 C15.3280189,13.8107427 15.678773,13.1851551 16.0046555,12.5461072 C16.0174102,12.5211093 16.0308026,12.4954705 16.0531233,12.4685497 C16.1589873,13.0217075 16.3177832,13.5543543 16.6028507,14.0376464 C16.4574471,14.1786599 16.3133191,14.3062131 16.1832212,14.4472267 C15.8962406,14.7568157 15.647524,15.0939663 15.5180638,15.5041877 C15.4625809,15.6810956 15.4192149,15.8605675 15.4440866,16.0502948 C15.4829884,16.3438595 15.722139,16.5342278 16.0091196,16.4675669 C16.6232582,16.3246304 17.1538535,16.0336296 17.5415963,15.518289 C17.8024298,15.1715238 17.826026,14.7843774 17.7169733,14.3786429 C17.6869998,14.2683959 17.6512866,14.1600718 17.6130225,14.0331596 C17.7648034,13.9857277 17.9127579,13.9293223 18.0651765,13.8940689 C18.8591563,13.7120332 19.6442078,13.7440817 20.4088518,14.0318776 C20.8552661,14.199812 21.216224,14.4818392 21.4298651,14.92475 C21.6913364,15.4663704 21.5465706,15.9797881 21.0389337,16.3220665 C20.9917413,16.354115 20.9375339,16.3791129 20.8979943,16.4188531 C20.8737604,16.44321 20.8597302,16.4925647 20.8654699,16.5258952 C20.8686585,16.5457653 20.9209528,16.5701222 20.9502886,16.5701222 C21.1173751,16.5688403 21.2525749,16.4810273 21.3826727,16.3906504 C21.7085552,16.1643877 21.9234718,15.8592855 21.9744906,15.4586787 C21.9757661,15.4471413 21.959185,15.4362448 22,15.4253483 L22,15.1587044 C21.959185,15.1478079 21.9764038,15.1369114 21.9751283,15.1253739 L21.9706642,15.1266558 Z M6.43863397,16.2098966 C6.38570199,16.9245791 6.06364593,17.5040168 5.53687701,17.9725664 C5.24033035,18.2366464 4.90105545,18.4244509 4.50502216,18.4904709 C4.36153184,18.5141868 4.21485284,18.5199556 4.07518893,18.4603453 C3.87685342,18.3750961 3.83221198,18.1981882 3.82838557,18.0091018 C3.82264596,17.7084865 3.92723446,17.4367148 4.07072479,17.1784036 C4.25821881,16.8412529 4.53308249,16.5842236 4.82644048,16.3445005 C5.28879819,15.9663277 5.79069545,15.6458422 6.30407194,15.343945 C6.31236249,15.3388172 6.32256624,15.3362533 6.34297376,15.3279207 C6.42205287,15.6227673 6.46031695,15.9137681 6.43799624,16.2105376 L6.43863397,16.2098966 Z M10.4499857,13.1043928 C10.4123593,13.3325784 10.3658047,13.560764 10.2994802,13.781899 C10.0698957,14.5472182 9.7759,15.2894624 9.45767035,16.0208102 C9.39899876,16.156055 9.3135423,16.2797624 9.23892733,16.4079566 C9.2274481,16.4278267 9.21022927,16.4451329 9.19364816,16.4617981 C9.10181436,16.553457 9.01380696,16.5483292 8.96725232,16.4284677 C8.91304486,16.289377 8.87988266,16.1406717 8.85118459,15.9932484 C8.83205255,15.8945389 8.83651669,15.7907016 8.83077708,15.6894283 C8.83715443,14.969618 9.05525972,14.3145458 9.42642135,13.7056235 C9.5794777,13.4543629 9.74592647,13.2152807 9.99974491,13.055679 C10.0781863,13.0069652 10.1655559,12.967866 10.2542011,12.9422272 C10.3894008,12.9037689 10.4729441,12.967225 10.4506234,13.1037518 L10.4499857,13.1043928 Z M13.1865055,16.6085805 C13.5143012,16.2239979 13.8414591,15.8400564 14.1698925,15.4541919 C14.2107076,15.8830015 13.4862409,16.7386975 13.1865055,16.6085805 L13.1865055,16.6085805 Z M16.327987,15.8323648 C16.2584739,15.8721049 16.1825835,15.9015896 16.1111572,15.9381249 C16.0461082,15.9720964 16.0244252,15.9381249 16.022512,15.8817195 C16.0212366,15.8432613 16.0269762,15.8035211 16.0371799,15.7663448 C16.1698288,15.2952312 16.4140812,14.8939834 16.7782277,14.5670883 C16.7833296,14.5619605 16.7916202,14.5600376 16.8037371,14.5536279 C16.9765632,15.0394838 16.7769523,15.5740535 16.3273493,15.8323648 L16.327987,15.8323648 Z" id="sass" fill="#000"/>
    </g>
</svg>

<svg xmlns="http://www.w3.org/2000/svg" viewBox="0 0 24 24">
    <path fill-rule="evenodd" d="M21.97 15.127c-.069-.584-.368-1.037-.82-1.393-.522-.41-1.135-.58-1.787-.607a4.017 4.017 0 0 0-1.554.241c-.143.052-.283.114-.427.172-.02-.035-.04-.068-.057-.104-.148-.303-.326-.594-.365-.942-.028-.247-.063-.495-.004-.739.056-.235.13-.466.2-.7.035-.119.01-.186-.104-.24a.46.46 0 0 0-.125-.041 1.929 1.929 0 0 0-.825.061c-.095.029-.165.082-.186.189-.012.06-.037.119-.054.18-.07.25-.12.505-.234.743a23.732 23.732 0 0 1-.947 1.746l-.12.198c-.118-.247-.243-.468-.28-.728-.044-.294-.077-.587-.005-.878.055-.218.125-.431.19-.645.032-.102.017-.155-.075-.21a.442.442 0 0 0-.151-.058 1.843 1.843 0 0 0-.853.07c-.087.029-.132.085-.159.175-.078.264-.144.536-.253.787-.443 1.02-.898 2.034-1.352 3.047-.095.212-.206.416-.313.622-.028.052-.067.098-.1.147-.028-.032-.038-.054-.038-.076 0-.13-.015-.265.01-.39.075-.381.16-.76.252-1.138.075-.312.162-.62.246-.93.028-.105.028-.202-.046-.289a.426.426 0 0 0-.54-.065c-.016.012-.036.02-.068.039l.014-.11a1.738 1.738 0 0 0-.026-.708c-.08-.29-.287-.458-.587-.45-.14.005-.287.029-.416.08-.546.215-.965.595-1.321 1.053a.409.409 0 0 1-.12.104c-.462.257-.925.511-1.387.766l-.515.284c-.138-.133-.263-.27-.406-.387-.435-.356-.877-.704-1.314-1.056-.388-.312-.764-.638-1.052-1.051-.214-.308-.352-.645-.365-1.025-.016-.485.12-.928.366-1.34.314-.528.742-.951 1.213-1.335a11.18 11.18 0 0 1 1.596-1.064c.781-.44 1.585-.829 2.447-1.086.884-.263 1.78-.414 2.704-.309.364.041.717.125 1.041.304.248.136.452.315.547.595.093.276.09.555.025.834-.131.566-.44 1.034-.828 1.45-.637.685-1.413 1.15-2.288 1.458a6.25 6.25 0 0 1-1.557.334 2.913 2.913 0 0 1-1.273-.155c-.273-.1-.51-.255-.701-.479-.035-.04-.078-.083-.142-.046-.063.037-.073.097-.052.157.035.1.067.205.121.294.137.225.337.389.556.53.421.268.892.359 1.38.38.742.032 1.465-.079 2.177-.279 1.018-.285 1.903-.789 2.612-1.584.592-.661 1.013-1.409 1.104-2.31.044-.44-.003-.872-.208-1.273-.223-.436-.576-.736-.999-.958-.615-.324-1.28-.452-1.965-.489h-.687a8.155 8.155 0 0 0-2.414.501c-.59.216-1.17.46-1.733.742-1.225.615-2.366 1.351-3.303 2.37-.466.51-.862 1.067-1.089 1.727-.066.194-.107.399-.155.599-.004.016.015.032-.026.049v.282c.04.072.045.144.064.217.12.47.368.873.676 1.241.438.524.968.946 1.518 1.344.476.344.96.68 1.438 1.022.082.058.158.126.247.198-.076.042-.14.078-.207.112a11.05 11.05 0 0 0-1.799 1.12c-.337.263-.663.544-.894.909-.37.588-.502 1.215-.225 1.884.08.196.204.365.377.49.056.04.12.08.185.096.168.04.34.066.512.097h.483a2.997 2.997 0 0 0 1.461-.537c.687-.477 1.15-1.116 1.35-1.937a3.438 3.438 0 0 0-.02-1.787 1.806 1.806 0 0 0-.056-.162c-.022-.054-.046-.105-.074-.172l1.096-.634.016.014c-.02.065-.04.13-.059.197-.13.479-.217.965-.185 1.461.033.53.18 1.024.487 1.466.25.358.843.37 1.107.012.094-.127.185-.26.254-.402.178-.371.344-.749.514-1.124l.03-.068c-.012.177-.026.333-.033.49-.01.243.004.485.087.717.07.199.191.347.418.373.154.018.278-.054.391-.144.178-.141.322-.315.43-.513.302-.56.613-1.115.888-1.689.298-.62.557-1.259.833-1.89.016-.034.029-.07.046-.111.065.257.111.51.195.748.097.277.217.548.348.81.062.125.055.205-.03.31-.36.435-.714.876-1.068 1.317a2.91 2.91 0 0 0-.221.303.588.588 0 0 0-.077.218.278.278 0 0 0 .221.316c.14.03.289.042.432.031.494-.037.942-.21 1.338-.506.514-.382.679-.903.555-1.522-.034-.168-.093-.331-.151-.493-.027-.073-.028-.124.02-.192.41-.59.76-1.215 1.087-1.854a.393.393 0 0 1 .048-.077c.106.553.265 1.085.55 1.569-.146.14-.29.268-.42.41-.287.309-.535.646-.665 1.056-.055.177-.099.357-.074.546.039.294.278.484.565.418.614-.143 1.145-.434 1.533-.95.26-.346.284-.734.175-1.14-.03-.11-.066-.218-.104-.345.152-.047.3-.104.452-.139.794-.182 1.58-.15 2.344.138.446.168.807.45 1.02.893.262.541.118 1.055-.39 1.397-.047.032-.101.057-.141.097a.14.14 0 0 0-.033.107c.004.02.056.044.085.044.167-.001.303-.089.433-.18.326-.226.54-.53.591-.931.002-.012-.015-.023.026-.034v-.266c-.04-.011-.024-.022-.025-.034l-.004.002zM6.44 16.21c-.053.715-.375 1.294-.902 1.763a2.046 2.046 0 0 1-1.032.517.758.758 0 0 1-.43-.03c-.198-.085-.243-.262-.247-.45-.005-.302.1-.573.243-.832.187-.337.462-.594.755-.833.463-.379.965-.7 1.478-1.001.008-.005.019-.008.039-.016.08.295.117.586.095.883v-.001zm4.011-3.106a5.44 5.44 0 0 1-.15.678c-.23.765-.524 1.507-.842 2.239-.059.135-.144.259-.22.387a.278.278 0 0 1-.044.054c-.092.091-.18.086-.227-.034a2.529 2.529 0 0 1-.116-.435c-.019-.098-.014-.202-.02-.304.006-.72.224-1.374.595-1.983.153-.252.32-.49.574-.65a1.03 1.03 0 0 1 .254-.114c.135-.038.219.025.197.162h-.001zm2.737 3.505l.983-1.155c.04.429-.684 1.285-.983 1.155zm3.141-.777c-.07.04-.145.07-.217.106-.065.034-.087 0-.088-.056a.393.393 0 0 1 .014-.116 2.48 2.48 0 0 1 .741-1.199c.005-.005.014-.007.026-.013a1.06 1.06 0 0 1-.477 1.278h.001z"/>
</svg>
